src/icons/room-reload.svg

<svg fill="none" height="24" viewBox="0 0 24 24" width="24" xmlns="http://www.w3.org/2000/svg"><path d="m20 3h-16c-1.10457 0-2 .89543-2 2v10c0 1.1046.89543 2 2 2h16c1.1046 0 2-.8954 2-2v-10c0-1.10457-.8954-2-2-2z"/><path d="m8 21h8"/><path d="m12 17v4"/><path d="m17 6v3h-3"/><path d="m14.2923 13.3318c-.7315.4799-1.6013.712-2.4781.6614-.8767-.0507-1.7131-.3814-2.38303-.9422-.66992-.5609-1.13708-1.3215-1.3311-2.1674-.19401-.8458-.10437-1.73105.25543-2.52221.35979-.79116.97025-1.44542 1.7394-1.86419.7691-.41877 1.6552-.57935 2.5248-.45755.8696.12179 1.6726.45755 2.2964 1.13282.6237.67527 1.0839 1.82753 1.0839 1.82753"/></svg>

<svg width="24" height="24" viewBox="0 0 24 24" fill="none" xmlns="http://www.w3.org/2000/svg" class="feather">
<path d="M20 3H4C2.89543 3 2 3.89543 2 5V15C2 16.1046 2.89543 17 4 17H20C21.1046 17 22 16.1046 22 15V5C22 3.89543 21.1046 3 20 3Z" />
<path d="M8 21H16" />
<path d="M12 17V21" />
<path d="M17 6V9H14" />
<path d="M14.2923 13.3318C13.5608 13.8117 12.691 14.0438 11.8142 13.9932C10.9375 13.9425 10.1011 13.6118 9.43117 13.051C8.76125 12.4901 8.29409 11.7295 8.10007 10.8836C7.90606 10.0378 7.9957 9.15255 8.3555 8.36139C8.71529 7.57023 9.32575 6.91597 10.0949 6.4972C10.864 6.07843 11.7501 5.91785 12.6197 6.03965C13.4893 6.16144 14.2923 6.4972 14.9161 7.17247C15.5398 7.84774 16 9 16 9" />
</svg>
